!!!ONB: MCCC : ILB0170_02 : Extracted Monophonic Melody
!!!COM: Beethoven, Ludwig van
!!!OPR: Piano Sonata No.9
!!!OMV: 2
!!!SCT: Op.14 No.1
!!!ODT: 1798///
**kern
*thru
*staff1
*Ipiano
*>A
*clefG2
*k[f#]
*e:
*M3/4
*MM120
=1
4.e
8d#
4e
=2
4.e
8d#
4e
=3
2.g[
=4
4g]
8f#
8e
8d#
8f#
=5
4e
4f#
4g
=6
4b
4a
4g
=7
2f#
8a
8g
=8
4f#
4r
4b
=9
2.b
=10
2.cc
=11
2.cc#
=12
2.cc
=13
4b[
4b]
4b
=14
2ff#
4ee
=15
2ee
4dd#
=16
4ee
4r
4r
=17
2.c
=18
2.d
=19
2.d
=20
2.d
=21
2.c
=22
2.d
=23
2.d
=24
4d
4r
4r
=25
2.cc
=26
2.dd
=27
2.dd
=28
2.dd
=29
2.cc
=30
2ee
4ee
=31
2ee
4dd#
=32
2ff#
4b
=33
4.ee
8dd#
4ee
=34
4.ee
8dd#
4ee
=35
2.gg[
=36
4gg]
8ff#
8ee
8dd#
8ff#
=37
4ee
4ff#
4gg
=38
4bb
4aa
4gg
=39
2ff#
8aa
8gg
=40
4ff#
4r
4B
=41
4.e
8d#
4e
=42
4.e
8d#
4e
=43
2.cc[
=44
4cc]
8b
8a
8g#
8b
=45
4a
8b
8a
8g#
8b
=46
4a
8b
8a
8g#
8b
=47
4a
8a
8g#
8a
8b
=48
8cc
8dd
8ee
8dd#
8ee
8cc
=49
4b
8b
8a#
8b
8g
=50
4f#
8b
8a#
8b
8f#
=51
2.e
=52
2.d#
=53
4e
4r
4g#
=54
4a
8a
8b
8cc
8a
=55
4g#
4r
4ee
=56
2.dd#
=57
4ee
2dd#
=58
4ee
2dd#
=59
4ee
4r
4r
=60
4gg#
4r
4r
=61
4eee
4r
4r
=62
2eee[
8.eee]
16e
=63
*>B
*k[]
2.e
=64
4d
4f
4B
=65
4c
4e
[4g
=66
4g]
4f#
4f
=67
2.e
=68
4d
4f
4B
=69
4c
4e
4g
=70
4cc
4dd
4dd#
=71
2ee
4dd
=72
4gg
4ff#
4gg
=73
2a
4g
=74
4cc
2b[
=75
4b]
4g#
4a[
=76
4a]
4e
4f#
=77
4g
4A
4G
=78
2.r
=79
*>B
2.e
=80
4d
4f
4B
=81
4c
4e
[4g
=82
4g]
4f#
4f
=83
2.e
=84
4d
4f
4B
=85
4c
4e
4g
=86
4cc
4dd
4dd#
=87
2ee
4dd
=88
4gg
4ff#
4gg
=89
2a
4g
=90
4cc
2b[
=91
4b]
4g#
4a[
=92
4a]
4e
4f#
=93
4g
4A
4G
=94
2.r
=95
*>C
2.GG
=96
4f
4e
4d
=97
2.GG
=98
4e
4d
4c
=99
2.G
=100
4ff
4ee
4dd
=101
2.G
=102
4ee
4dd
4cc
=103
4b
4a
4g
=104
4f
4e
4d
=105
2.e
=106
4d
4f
4B
=107
4c
4e
4g
=108
4cc
4dd
4dd#
=109
2.ee
=110
4dd
4ff
4b
=111
4cc
4ee
4gg
=112
4ccc
4ddd
4ddd#
=113
2.eee[
=114
2.eee]
=115
2.bb[
=116
2.bb]
=117
*k[f#]
4.e
8d#
4e
=118
4.e
8d#
4e
=119
2.g[
=120
4g]
8f#
8e
8d#
8f#
=121
4e
4f#
4g
=122
4b
4a
4g
=123
2f#
8a
8g
=124
4f#
4r
4b
=125
4.ee
8dd#
4ee
=126
4.ee
8dd#
4ee
=127
2.gg[
=128
4gg]
8ff#
8ee
8dd#
8ff#
=129
4ee
4ff#
4gg
=130
4bb
4aa
4gg
=131
2gg
4ff#
=132
4ee
4r
4r
=133
4.e
8d#
4e
=134
2.g
=135
4.f
8e
4f
=136
2.g
=137
4.e
8d#
4e
=138
2g
4g
=139
2g
4f#
=140
4g
4r
4g
=141
4.ee
8dd#
4ee
=142
2.gg
=143
4.ff
8ee
4ff
=144
2.gg
=145
4.ee
8dd#
4ee
=146
2ee
4ee
=147
2ee
4dd#
=148
2ff#
4b
=149
4.ee
8dd#
4ee
=150
4.ee
8dd#
4ee
=151
2.gg[
=152
4gg]
8ff#
8ee
8dd#
8ff#
=153
4ee
4ff#
4gg
=154
4bb
4aa
4gg
=155
2ff#
8aa
8gg
=156
4ff#
4r
4B
=157
4.e
8d#
4e
=158
4.e
8d#
4e
=159
2.cc[
=160
4cc]
8b
8a
8g#
8b
=161
4a
8b
8a
8g#
8b
=162
4a
8b
8a
8g#
8b
=163
4a
8a
8g#
8a
8b
=164
8cc
8dd
8ee
8dd#
8ee
8cc
=165
4b
8b
8a#
8b
8g
=166
4f#
8b
8a#
8b
8f#
=167
2.e
=168
2.d#
=169
4e
4r
4g#
=170
4a
8a
8b
8cc
8a
=171
4g#
4r
4ee
=172
2.dd#
=173
4ee
2dd#
=174
4ee
2dd#
=175
4ee
4r
4r
=176
4gg#
4r
4r
=177
4eee
4r
4r
=178
2eee[
8.eee]
16e
=179
2.e
=180
4d
4f
4B
=181
4c
4e
4g
=182
4cc
4dd
4dd#
=183
2.ee
=184
4dd
4ff
4b
=185
4cc
4ee
4gg
=186
4ccc
4ddd
4ddd#
=187
2.eee[
=188
2.eee]
=189
2.bb[
=190
2.bb]
=191
4ee
4r
4r
=192
4e
4r
4r
=193
4e
4r
4r
=194
2.r
==
*-
